Lila_HD/emblems/scalable/emblem-system-symbolic.svg

<?xml version="1.0" encoding="UTF-8" standalone="no"?>
<!-- Created with Inkscape (http://www.inkscape.org/) -->

<svg
   xmlns:dc="http://purl.org/dc/elements/1.1/"
   xmlns:cc="http://creativecommons.org/ns#"
   xmlns:rdf="http://www.w3.org/1999/02/22-rdf-syntax-ns#"
   xmlns:svg="http://www.w3.org/2000/svg"
   xmlns="http://www.w3.org/2000/svg"
   xmlns:sodipodi="http://sodipodi.sourceforge.net/DTD/sodipodi-0.dtd"
   xmlns:inkscape="http://www.inkscape.org/namespaces/inkscape"
   width="16.000128"
   height="16.000059"
   id="svg13094"
   version="1.1"
   inkscape:version="0.48.3.1 r9886"
   sodipodi:docname="applications-system.svg">
  <sodipodi:namedview
     id="base"
     pagecolor="#ffffff"
     bordercolor="#666666"
     borderopacity="1.0"
     inkscape:pageopacity="0.0"
     inkscape:pageshadow="2"
     inkscape:zoom="32.000001"
     inkscape:cx="17.922957"
     inkscape:cy="7.3861387"
     inkscape:document-units="px"
     inkscape:current-layer="layer1"
     showgrid="true"
     inkscape:snap-bbox="true"
     inkscape:bbox-paths="true"
     inkscape:bbox-nodes="true"
     inkscape:snap-bbox-edge-midpoints="true"
     inkscape:snap-bbox-midpoints="true"
     inkscape:object-paths="true"
     inkscape:snap-intersection-paths="true"
     inkscape:object-nodes="true"
     inkscape:snap-smooth-nodes="true"
     inkscape:snap-midpoints="true"
     inkscape:snap-object-midpoints="true"
     inkscape:snap-center="true"
     showguides="false"
     inkscape:guide-bbox="true"
     inkscape:window-width="1920"
     inkscape:window-height="1033"
     inkscape:window-x="-10"
     inkscape:window-y="25"
     inkscape:window-maximized="1"
     inkscape:snap-global="false"
     fit-margin-top="0"
     fit-margin-left="0"
     fit-margin-right="0"
     fit-margin-bottom="0"
     showborder="true"
     inkscape:showpageshadow="false">
    <sodipodi:guide
       id="guide16149"
       position="6601.5878,647.00745"
       orientation="0,1" />
    <sodipodi:guide
       id="guide16151"
       position="6374.4449,597.99875"
       orientation="0,1" />
    <sodipodi:guide
       id="guide16153"
       position="6440.1591,622.50305"
       orientation="0,1" />
    <sodipodi:guide
       id="guide17725"
       position="6433.7306,542.35585"
       orientation="0,1" />
    <sodipodi:guide
       id="guide9456"
       position="6931.2289,150.48606"
       orientation="1,0" />
    <sodipodi:guide
       id="guide9458"
       position="6755.4789,515.53501"
       orientation="0,1" />
    <sodipodi:guide
       id="guide9468"
       position="6526.7092,460.6296"
       orientation="0,1" />
    <sodipodi:guide
       id="guide9470"
       position="6551.2289,481.99958"
       orientation="0,1" />
    <sodipodi:guide
       id="guide11159"
       position="6419.2289,196.00006"
       orientation="1,0" />
    <sodipodi:guide
       id="guide13980"
       position="6732.2601,460.03461"
       orientation="1,0" />
    <sodipodi:guide
       orientation="0,1"
       position="4878.229,-914.9999"
       id="guide3972" />
    <sodipodi:guide
       orientation="1,0"
       position="5058.229,-1042.9999"
       id="guide3974" />
    <sodipodi:guide
       orientation="0,1"
       position="4752.229,-1277.9998"
       id="guide3976" />
    <sodipodi:guide
       orientation="1,0"
       position="4725.229,-1136.9999"
       id="guide3978" />
    <sodipodi:guide
       orientation="1,0"
       position="74.999929,328.00006"
       id="guide4287" />
    <sodipodi:guide
       orientation="0,1"
       position="74.999929,328.00006"
       id="guide4289" />
    <inkscape:grid
       type="xygrid"
       id="grid3248"
       empspacing="5"
       visible="true"
       enabled="true"
       snapvisiblegridlinesonly="true"
       originx="9.7771128e-05px"
       originy="11.000061px" />
  </sodipodi:namedview>
  <defs
     id="defs13096" />
  <metadata
     id="metadata13099">
    <rdf:RDF>
      <cc:Work
         rdf:about="">
        <dc:format>image/svg+xml</dc:format>
        <dc:type
           rdf:resource="http://purl.org/dc/dcmitype/StillImage" />
        <dc:title />
      </cc:Work>
    </rdf:RDF>
  </metadata>
  <g
     transform="translate(8065.8735,-502.93229)"
     id="layer1"
     inkscape:groupmode="layer"
     inkscape:label="Camada 1">
    <path
       style="fill:#434a54;fill-opacity:0.6745098;fill-rule:nonzero;stroke:none"
       d="m -8040.8734,502.93229 0,2.09375 c -0.9083,0.1512 -1.7159,0.52064 -2.4375,1.03125 l -1.5,-1.5 -1.4375,1.4375 1.5,1.5 c -0.5106,0.72161 -0.8801,1.52916 -1.0313,2.4375 l -2.0937,0 0,2 2.0937,0 c 0.1512,0.90834 0.5207,1.71588 1.0313,2.4375 l -1.5,1.5 1.4375,1.4375 1.5,-1.5 c 0.7216,0.51061 1.5292,0.88005 2.4375,1.03125 l 0,2.09375 2,0 0,-2.09375 c 0.9083,-0.1512 1.7159,-0.52064 2.4375,-1.03125 l 1.5,1.5 1.4375,-1.4375 -1.5,-1.5 c 0.5106,-0.72162 0.88,-1.52916 1.0312,-2.4375 l 2.0938,0 0,-2 -2.0938,0 c -0.1512,-0.90834 -0.5206,-1.71589 -1.0312,-2.4375 l 1.5,-1.5 -1.4375,-1.4375 -1.5,1.5 c -0.7216,-0.51061 -1.5292,-0.88005 -2.4375,-1.03125 l 0,-2.09375 -2,0 z m 1,4 c 2.2091,0 4,1.79086 4,4 0,2.20914 -1.7909,4 -4,4 -2.2091,0 -4,-1.79086 -4,-4 0,-2.20914 1.7909,-4 4,-4 z m 0,2 c -1.1046,0 -2,0.89543 -2,2 0,1.10457 0.8954,2 2,2 1.1046,0 2,-0.89543 2,-2 0,-1.10457 -0.8954,-2 -2,-2 z"
       id="path3065"
       inkscape:connector-curvature="0" />
    <path
       style="color:#000000;fill:#434a54;fill-opacity:0.67450980000000005;fill-rule:nonzero;stroke:none;stroke-width:2;marker:none;visibility:visible;display:inline;overflow:visible;enable-background:accumulate"
       d="M 7 0 C 6.6833134 0.0061146922 6.4583737 0.27478444 6.375 0.59375 L 6.03125 2.34375 C 5.3021382 2.5971928 4.6329983 2.9725999 4.0625 3.46875 L 2.40625 2.90625 C 2.15245 2.82588 1.7394 2.81868 1.5625 3.125 L 0.5625 4.875 C 0.4095 5.15231 0.54665 5.45582 0.78125 5.6875 L 2.125 6.84375 C 2.0528866 7.2156154 2 7.6070567 2 8 C 2 8.3929433 2.0528866 8.7843846 2.125 9.15625 L 0.78125 10.3125 C 0.58455 10.49211 0.3857 10.81867 0.5625 11.125 L 1.5625 12.875 C 1.7262 13.14618 2.08835 13.18105 2.40625 13.09375 L 4.0625 12.53125 C 4.6329983 13.0274 5.3021382 13.402807 6.03125 13.65625 L 6.375 15.40625 C 6.4323 15.66623 6.6463 16 7 16 L 9 16 C 9.3167 15.99389 9.542 15.72522 9.625 15.40625 L 9.96875 13.65625 C 10.697862 13.402807 11.367002 13.0274 11.9375 12.53125 L 13.59375 13.09375 C 13.84755 13.17412 14.2606 13.18132 14.4375 12.875 L 15.4375 11.125 C 15.5905 10.84769 15.45335 10.54418 15.21875 10.3125 L 13.875 9.15625 C 13.947113 8.7843846 14 8.3929433 14 8 C 14 7.6070567 13.947113 7.2156154 13.875 6.84375 L 15.21875 5.6875 C 15.41545 5.50789 15.6143 5.18133 15.4375 4.875 L 14.4375 3.125 C 14.2738 2.85382 13.91165 2.81895 13.59375 2.90625 L 11.9375 3.46875 C 11.367002 2.9725999 10.697862 2.5971928 9.96875 2.34375 L 9.625 0.59375 C 9.5677065 0.33377266 9.3537143 0 9 0 L 7 0 z M 8 4 C 10.209139 4 12 5.7908612 12 8 C 12 10.209139 10.209139 12 8 12 C 5.7908612 12 4 10.209139 4 8 C 4 5.7908612 5.7908612 4 8 4 z M 8 6 C 6.8954305 6 6 6.8954305 6 8 C 6 9.1045695 6.8954305 10 8 10 C 9.1045695 10 10 9.1045695 10 8 C 10 6.8954305 9.1045695 6 8 6 z "
       transform="translate(-8065.8735,502.93229)"
       id="path3002" />
  </g>
</svg>

<?xml version="1.0" encoding="UTF-8"?>
<!-- Created with Inkscape (http://www.inkscape.org/) -->
<svg version="1.1" viewBox="0 0 16 16" xmlns="http://www.w3.org/2000/svg" xmlns:cc="http://creativecommons.org/ns#" xmlns:dc="http://purl.org/dc/elements/1.1/" xmlns:rdf="http://www.w3.org/1999/02/22-rdf-syntax-ns#">
<metadata>
<rdf:RDF>
<cc:Work rdf:about="">
<dc:format>image/svg+xml</dc:format>
<dc:type rdf:resource="http://purl.org/dc/dcmitype/StillImage"/>
<dc:title/>
</cc:Work>
</rdf:RDF>
</metadata>
<g transform="translate(8065.9 -502.93)" fill="#434a54">
<path d="m-8040.9 502.93v2.0938c-0.9083 0.1512-1.7159 0.52064-2.4375 1.0312l-1.5-1.5-1.4375 1.4375 1.5 1.5c-0.5106 0.72161-0.8801 1.5292-1.0313 2.4375h-2.0937v2h2.0937c0.1512 0.90834 0.5207 1.7159 1.0313 2.4375l-1.5 1.5 1.4375 1.4375 1.5-1.5c0.7216 0.51061 1.5292 0.88005 2.4375 1.0312v2.0938h2v-2.0938c0.9083-0.1512 1.7159-0.52064 2.4375-1.0312l1.5 1.5 1.4375-1.4375-1.5-1.5c0.5106-0.72162 0.88-1.5292 1.0312-2.4375h2.0938v-2h-2.0938c-0.1512-0.90834-0.5206-1.7159-1.0312-2.4375l1.5-1.5-1.4375-1.4375-1.5 1.5c-0.7216-0.51061-1.5292-0.88005-2.4375-1.0312v-2.0938h-2zm1 4c2.2091 0 4 1.7909 4 4s-1.7909 4-4 4-4-1.7909-4-4 1.7909-4 4-4zm0 2c-1.1046 0-2 0.89543-2 2s0.8954 2 2 2 2-0.89543 2-2-0.8954-2-2-2z" fill-opacity=".67451"/>
<path transform="translate(-8065.9 502.93)" d="m7 0c-0.31669 0.0061147-0.54163 0.27478-0.625 0.59375l-0.34375 1.75c-0.72911 0.25344-1.3983 0.62885-1.9688 1.125l-1.6562-0.5625c-0.2538-0.08037-0.66685-0.08757-0.84375 0.21875l-1 1.75c-0.153 0.27731-0.01585 0.58082 0.21875 0.8125l1.3438 1.1562c-0.072113 0.37187-0.125 0.76331-0.125 1.1562s0.052887 0.78438 0.125 1.1562l-1.3438 1.1562c-0.1967 0.17961-0.39555 0.50617-0.21875 0.8125l1 1.75c0.1637 0.27118 0.52585 0.30605 0.84375 0.21875l1.6562-0.5625c0.5705 0.49615 1.2396 0.87156 1.9688 1.125l0.34375 1.75c0.0573 0.25998 0.2713 0.59375 0.625 0.59375h2c0.3167-0.00611 0.542-0.27478 0.625-0.59375l0.34375-1.75c0.72911-0.25344 1.3983-0.62885 1.9688-1.125l1.6562 0.5625c0.2538 0.08037 0.66685 0.08757 0.84375-0.21875l1-1.75c0.153-0.27731 0.01585-0.58082-0.21875-0.8125l-1.3438-1.1562c0.072113-0.37187 0.125-0.76331 0.125-1.1562s-0.052887-0.78438-0.125-1.1562l1.3438-1.1562c0.1967-0.17961 0.39555-0.50617 0.21875-0.8125l-1-1.75c-0.1637-0.27118-0.52585-0.30605-0.84375-0.21875l-1.6562 0.5625c-0.5705-0.49615-1.2396-0.87156-1.9688-1.125l-0.34375-1.75c-0.057294-0.25998-0.27129-0.59375-0.625-0.59375h-2zm1 4c2.2091 0 4 1.7909 4 4 0 2.2091-1.7909 4-4 4-2.2091 0-4-1.7909-4-4 0-2.2091 1.7909-4 4-4zm0 2c-1.1046 0-2 0.89543-2 2s0.89543 2 2 2 2-0.89543 2-2-0.89543-2-2-2z" color="#000000" fill-opacity=".67451"/>
</g>
</svg>
